X:7
T:Schafbärg-Juiz  F  ABBC
T:Fridolin Haldi (9.5.1918-14.11.2012)
T:Dirigenten-Notiz  Edi Gasser
C:Unterwalden (CH)
%%partsbox
P:ABBC
M:4/4
R:Naturjodel
L:1/4
K:F
[P:A] F>DCc | fedc | E>DCc | Bdc2 | E>DCc | 
ecBE | F>DCc | Adc2 | F>DCc | fedc | 
E>DCc | Bdc2 | E>DCc | ecBE | (F4 | F3)z || 
L:1/8
M:3/4
[P:B]  c cf | d3cc2 | A2Fd cF | E3D Cc |  B3c ce | 
d3cc2 | B2Ed cE | F3D Cc | A3c cf | d3cc2 | 
A2Fd cF | E3D Cc | B3c ce | d3cc2 | B2Ed cE | (F6 | F2)z2 ||
M:3/4
[P:C] FF | F3Bd2 | f2gf ed | c2fc Ad | c2A2F2 | E3G ed | 
c2dc BE | F3A fd | c4FF | F3Bd2 | f2 gf ed | 
c2fc Ad | c2A2F2 | E3G ed | c2dc BE | F6 | f4 |]
W:
%W:Reihenfolge: A-BB-C
W:UJV-Naturjodelsammlung: Code-Nr: 15-04
W:http://www.naturjodler.ch/code 15.htm  (with AUDIO)
%May 10, 2018

